static/assets/head_icons_png/man/bizi/1035272.svg

<svg xmlns="http://www.w3.org/2000/svg" width="16" height="11"><g transform="translate(8 5.1)"><radialGradient id="a" gradientUnits="userSpaceOnUse" gradientTransform="rotate(2.106 420.143 -12.49) scale(.01362)" spreadMethod="pad" cx="0" cy="0" r="819.2" fx="0" fy="0"><stop offset="0" stop-color="#fbbd9d"/><stop offset="1" stop-color="#fedec1"/></radialGradient><path d="M.9 2.55Q.25 3.4 0 4.5l-.15.65H-.3l-.35-.05-.25-.9-.65-1.35-.2-.25-.55-.7.05-.1.1-1.1.15-1.9q-.05-.65-.85-2.2l-1.35-.75q.55-.85 3.6-.9l4 .35.7.3.4.3Q2-2.3 1.75-.95L1.6 1v.3l.05.35q-.45.4-.75.9" fill="url(#a)"/><radialGradient id="b" gradientUnits="userSpaceOnUse" gradientTransform="rotate(6.577 -70.045 93.367) scale(.01003)" spreadMethod="pad" cx="0" cy="0" r="819.2" fx="0" fy="0"><stop offset="0" stop-color="#fbbd9d"/><stop offset="1" stop-color="#fedec1"/></radialGradient><path d="M1.65 1.65v.05l.25.5.05.05.15.2.1.2.05.15.05.1v.05l.1.2.05.45-.05.35-.1.15-.5.35-.4.15h-.05L.4 5l-.55.15L0 4.5q.25-1.1.9-1.95.3-.5.75-.9" fill="url(#b)"/><radialGradient id="c" gradientUnits="userSpaceOnUse" gradientTransform="rotate(6.537 -91.414 -98.26) scale(.01049)" spreadMethod="pad" cx="0" cy="0" r="819.2" fx="0" fy="0"><stop offset="0" stop-color="#fbbd9d"/><stop offset="1" stop-color="#fedec1"/></radialGradient><path d="M-.65 5.1L-1.1 5l-.95-.3-.1-.05-.7-.3h-.05l-.05-.1-.1-.15-.15-.45.15-.6.2-.5.1-.2.1-.1.35-.35.55.7.2.25.65 1.35.25.9" fill="url(#c)"/><path d="M.1 4.4L.6 4q.3-.25.55-.15.3.05.45.3l-.7.15-.6.15-.2-.05m-1.1 0l-.2.05-.6-.15-.6-.1-.1-.05.4-.3.6.15.5.4" fill="#823909"/><radialGradient id="d" gradientUnits="userSpaceOnUse" gradientTransform="matrix(.00435 0 0 .00508 3.7 .4)" spreadMethod="pad" cx="0" cy="0" r="819.2" fx="210524" fy="0"><stop offset="0" stop-color="#f39b61"/><stop offset="1" stop-color="#f7bc99" stop-opacity=".314"/></radialGradient><path d="M1.85 4.35q-.05-.55-.75-.8H.9l.1-.2-.2-1.3Q.5.9.55.6L.5-.45q0-.75.45-1.4L2.2-3.2l1.9-1.2Q2-2.35 1.75-.95L1.6 1v.3l.05.4.25.5.05.05.15.2.1.2.05.15.05.1.1.25.05.45-.05.35-.6.5.05-.1m-.6-1.25l.4.3.35.4.25-.3-.15-.6-.3-.4-.3-.15-.25.75" fill="url(#d)"/><radialGradient id="e" gradientUnits="userSpaceOnUse" gradientTransform="matrix(.00504 0 0 .00235 -.5 4.65)" spreadMethod="pad" cx="0" cy="0" r="819.2" fx="0" fy="0"><stop offset="0" stop-color="#f39b61"/><stop offset="1" stop-color="#f7bc99" stop-opacity=".314"/></radialGradient><path d="M-2.7 4.1l.25-.3.65-.15 1.8.2.9-.3h.2q.7.25.75.8l-.05.1-.4.15h-.05L.4 5l-.7.15-.8-.15-.95-.3-.1-.05-.7-.3h-.05l.2-.25m3 .35l.6-.15.7-.15q-.15-.25-.45-.3Q.9 3.75.6 4l-.5.4.2.05M-1.5 4l-.6-.15-.4.3.1.05.6.1.6.15.2-.05-.5-.4" fill="url(#e)"/><radialGradient id="f" gradientUnits="userSpaceOnUse" gradientTransform="matrix(.00362 0 0 .00508 -3.45 .1)" spreadMethod="pad" cx="0" cy="0" r="819.2" fx="0" fy="0"><stop offset="0" stop-color="#f39b61"/><stop offset="1" stop-color="#f7bc99" stop-opacity=".314"/></radialGradient><path d="M-2.9 4.35l-.05-.1-.1-.15-.15-.45.15-.6.2-.5.1-.2.1-.1.4-.45.1-1.1.15-1.9q-.05-.65-.85-2.25L-1.7-2.2l.65.95q.3 2.35-.3 3.45l-.3 1.05-.1-.3q-.15-.25-.45-.2V2.7l-.05.05-.1.05-.1.05-.35.5-.05.1V4l.05-.1.1.2-.2.25" fill="url(#f)"/><radialGradient id="g" gradientUnits="userSpaceOnUse" gradientTransform="matrix(.00093 .00017 -.00012 .00076 -.35 3.2)" spreadMethod="pad" cx="0" cy="0" r="819.2" fx="0" fy="0"><stop offset=".314" stop-color="#fff" stop-opacity=".663"/><stop offset="1" stop-color="#fff" stop-opacity="0"/></radialGradient><path d="M-.85 2.75h.55l.5.2.2.4-.3.25-.55.05-.5-.25-.15-.4.25-.25" fill="url(#g)"/><radialGradient id="h" gradientUnits="userSpaceOnUse" gradientTransform="matrix(.00066 .00008 -.00002 .00253 -.25 .05)" spreadMethod="pad" cx="0" cy="0" r="819.2" fx="0" fy="0"><stop offset=".314" stop-color="#fff" stop-opacity=".431"/><stop offset="1" stop-color="#fff" stop-opacity="0"/></radialGradient><path d="M.2.1L.05 1.5 0 1.8l-.05.1-.15.25-.2-.35v-.05l-.1-.3-.1-1.4.1-1.5.3-.6.3.7L.2.1" fill="url(#h)"/><radialGradient id="i" gradientUnits="userSpaceOnUse" gradientTransform="matrix(.00491 0 0 .00458 2.95 -1.6)" spreadMethod="pad" cx="0" cy="0" r="819.2" fx="210454" fy="0"><stop offset="0" stop-color="#e87243" stop-opacity=".812"/><stop offset="1" stop-color="#ffdec2" stop-opacity="0"/></radialGradient><path d="M2.9-2.5L1.05-1.25.7-1.3.6-2.55v-.8l.35-.45.1-.05 2.75-.3.35-.05H5.3l.6-.05-.25.05L7-3.6l1 1.2q-1.6-.7-3.45-.7L3.6-3l-.45.35-.25.15" fill="url(#i)"/><radialGradient id="j" gradientUnits="userSpaceOnUse" gradientTransform="matrix(.00484 0 0 .0048 -.3 .65)" spreadMethod="pad" cx="0" cy="0" r="819.2" fx="210473" fy="0"><stop offset=".337" stop-color="#f9c29f"/><stop offset="1" stop-color="#fedec1" stop-opacity="0"/></radialGradient><path d="M3.15-2.65l-.8 1.05Q1.9-.85 2-.1v.05l.15.35.35.6.9 1.15h-.05q-1.25-.25-1.75.3-.5.45-.55-.1L.9.5.8-.65l-.1-.5v-.15l.35.05L2.9-2.5l.25-.15M1.8-.7l.05-.15-.05.1v.05" fill="url(#j)"/><radialGradient id="k" gradientUnits="userSpaceOnUse" gradientTransform="matrix(.00491 0 0 .00485 2.95 -1.85)" spreadMethod="pad" cx="0" cy="0" r="819.2" fx="210454" fy="0"><stop offset="0" stop-color="#e87243" stop-opacity=".812"/><stop offset="1" stop-color="#ffdec2" stop-opacity="0"/></radialGradient><path d="M3.55 2.2L3.4 2l.15.2" fill="url(#k)"/><radialGradient id="l" gradientUnits="userSpaceOnUse" gradientTransform="matrix(-.00533 0 0 .00514 -4.05 -1.85)" spreadMethod="pad" cx="0" cy="0" r="819.2" fx="210454" fy="0"><stop offset="0" stop-color="#e87243" stop-opacity=".812"/><stop offset="1" stop-color="#ffdec2" stop-opacity="0"/></radialGradient><path d="M-2.85-2.4l-.95-.5.1.1-.85-.3-1.9-.15-1.2.2-.35.1.5-1 1-.25h.4l-.3-.05 1.05.05 3.8.35.1.05.3.45.05.8-.1 1.15q-.35.35-1.65-1" fill="url(#l)"/><radialGradient id="m" gradientUnits="userSpaceOnUse" gradientTransform="matrix(.00473 0 0 .00587 -.3 .25)" spreadMethod="pad" cx="0" cy="0" r="819.2" fx="210473" fy="0"><stop offset=".337" stop-color="#f9c29f"/><stop offset="1" stop-color="#fedec1" stop-opacity="0"/></radialGradient><path d="M-1.2-1.4l-.05.1v.2l-.05.45-.05.05V0l-.05.1-.1 1.65q-.1.95-.6.6-.5-.4-1.65-.3h-.15l1-1.35-.55.75.6-1.15.35-.45.05-.1h.05-.05l-.3-.9q-.4-1-.95-1.65l-.1-.1.95.5q1.3 1.35 1.65 1" fill="url(#m)"/></g></svg>

<?xml version="1.0" encoding="utf-8"?>
<svg version="1.1" id="Layer_1"
xmlns="http://www.w3.org/2000/svg"
xmlns:xlink="http://www.w3.org/1999/xlink"
xmlns:author="http://www.sothink.com"
width="16px" height="11px"
xml:space="preserve">
<g id="492" transform="matrix(1, 0, 0, 1, 8, 5.1)">
<radialGradient
id="RadialGradID_4225" gradientUnits="userSpaceOnUse" gradientTransform="matrix(0.0136108, 0.000473022, -0.000473022, 0.0136108, -0.15, -14.6)" spreadMethod ="pad" cx="0" cy="0" r="819.2" fx="0" fy="0" >
<stop  offset="0"  style="stop-color:#FBBD9D;stop-opacity:1" />
<stop  offset="1"  style="stop-color:#FEDEC1;stop-opacity:1" />
</radialGradient>
<path style="fill:url(#RadialGradID_4225) " d="M0.9,2.55Q0.25 3.4 0 4.5L-0.15 5.15L-0.3 5.15L-0.65 5.1L-0.9 4.2L-1.55 2.85L-1.75 2.6L-2.3 1.9L-2.25 1.8L-2.15 0.7L-2 -1.2Q-2.05 -1.85 -2.85 -3.4L-4.2 -4.15Q-3.65 -5 -0.6 -5.05L3.4 -4.7L4.1 -4.4L4.5 -4.1Q2 -2.3 1.75 -0.95L1.6 1L1.6 1.05L1.6 1.3L1.65 1.65Q1.2 2.05 0.9 2.55" />
<radialGradient
id="RadialGradID_4226" gradientUnits="userSpaceOnUse" gradientTransform="matrix(0.00996399, 0.00112915, -0.00112915, 0.00996399, 10.05, 8.5)" spreadMethod ="pad" cx="0" cy="0" r="819.2" fx="0" fy="0" >
<stop  offset="0"  style="stop-color:#FBBD9D;stop-opacity:1" />
<stop  offset="1"  style="stop-color:#FEDEC1;stop-opacity:1" />
</radialGradient>
<path style="fill:url(#RadialGradID_4226) " d="M1.65,1.65L1.65 1.7L1.9 2.2L1.95 2.25L2.1 2.45L2.2 2.65L2.25 2.8L2.3 2.9L2.3 2.95L2.4 3.15L2.45 3.6L2.4 3.95L2.3 4.1L1.8 4.45L1.4 4.6L1.35 4.6L0.4 5L-0.15 5.15L0 4.5Q0.25 3.4 0.9 2.55Q1.2 2.05 1.65 1.65" />
<radialGradient
id="RadialGradID_4227" gradientUnits="userSpaceOnUse" gradientTransform="matrix(0.0104218, 0.00117493, -0.00117493, 0.0104218, -11.6, 9.6)" spreadMethod ="pad" cx="0" cy="0" r="819.2" fx="0" fy="0" >
<stop  offset="0"  style="stop-color:#FBBD9D;stop-opacity:1" />
<stop  offset="1"  style="stop-color:#FEDEC1;stop-opacity:1" />
</radialGradient>
<path style="fill:url(#RadialGradID_4227) " d="M-0.65,5.1L-1.1 5L-2.05 4.7L-2.15 4.65L-2.85 4.35L-2.9 4.35L-2.95 4.25L-3.05 4.1L-3.2 3.65L-3.05 3.05L-2.85 2.55L-2.75 2.35L-2.65 2.25L-2.3 1.9L-1.75 2.6L-1.55 2.85L-0.9 4.2L-0.65 5.1" />
<path style="fill:#823909;fill-opacity:1" d="M0.1,4.4L0.6 4Q0.9 3.75 1.15 3.85Q1.45 3.9 1.6 4.15L0.9 4.3L0.3 4.45L0.1 4.4M-1,4.4L-1.2 4.45L-1.8 4.3L-2.4 4.2L-2.5 4.15L-2.1 3.85L-1.5 4L-1 4.4" />
<radialGradient
id="RadialGradID_4228" gradientUnits="userSpaceOnUse" gradientTransform="matrix(0.00434875, 0, 0, 0.00508118, 3.7, 0.4)" spreadMethod ="pad" cx="0" cy="0" r="819.2" fx="210524" fy="0" >
<stop  offset="0"  style="stop-color:#F39B61;stop-opacity:1" />
<stop  offset="1"  style="stop-color:#F7BC99;stop-opacity:0.313725" />
</radialGradient>
<path style="fill:url(#RadialGradID_4228) " d="M1.85,4.35Q1.8 3.8 1.1 3.55L0.9 3.55L1 3.35L0.8 2.05Q0.5 0.9 0.55 0.6L0.5 -0.45Q0.5 -1.2 0.95 -1.85L2.2 -3.2L4.1 -4.4Q2 -2.35 1.75 -0.95L1.6 1L1.6 1.05L1.6 1.3L1.65 1.7L1.9 2.2L1.95 2.25L2.1 2.45L2.2 2.65L2.25 2.8L2.3 2.9L2.4 3.15L2.45 3.6L2.4 3.95L1.8 4.45L1.85 4.35M1.25,3.1L1.65 3.4L2 3.8L2.25 3.5L2.1 2.9L1.8 2.5L1.5 2.35L1.25 3.1" />
<radialGradient
id="RadialGradID_4229" gradientUnits="userSpaceOnUse" gradientTransform="matrix(0.0050354, 0, 0, 0.00234985, -0.5, 4.65)" spreadMethod ="pad" cx="0" cy="0" r="819.2" fx="0" fy="0" >
<stop  offset="0"  style="stop-color:#F39B61;stop-opacity:1" />
<stop  offset="1"  style="stop-color:#F7BC99;stop-opacity:0.313725" />
</radialGradient>
<path style="fill:url(#RadialGradID_4229) " d="M-2.7,4.1L-2.45 3.8L-1.8 3.65L0 3.85L0.9 3.55L1.1 3.55Q1.8 3.8 1.85 4.35L1.8 4.45L1.4 4.6L1.35 4.6L0.4 5L-0.3 5.15L-1.1 5L-2.05 4.7L-2.15 4.65L-2.85 4.35L-2.9 4.35L-2.7 4.1M0.3,4.45L0.9 4.3L1.6 4.15Q1.45 3.9 1.15 3.85Q0.9 3.75 0.6 4L0.1 4.4L0.3 4.45M-1.5,4L-2.1 3.85L-2.5 4.15L-2.4 4.2L-1.8 4.3L-1.2 4.45L-1 4.4L-1.5 4" />
<radialGradient
id="RadialGradID_4230" gradientUnits="userSpaceOnUse" gradientTransform="matrix(0.00361633, 0, 0, 0.00508118, -3.45, 0.1)" spreadMethod ="pad" cx="0" cy="0" r="819.2" fx="0" fy="0" >
<stop  offset="0"  style="stop-color:#F39B61;stop-opacity:1" />
<stop  offset="1"  style="stop-color:#F7BC99;stop-opacity:0.313725" />
</radialGradient>
<path style="fill:url(#RadialGradID_4230) " d="M-2.9,4.35L-2.95 4.25L-3.05 4.1L-3.2 3.65L-3.05 3.05L-2.85 2.55L-2.75 2.35L-2.65 2.25L-2.25 1.8L-2.15 0.7L-2 -1.2Q-2.05 -1.85 -2.85 -3.45L-1.7 -2.2L-1.05 -1.25Q-0.75 1.1 -1.35 2.2L-1.65 3.25L-1.75 2.95Q-1.9 2.7 -2.2 2.75L-2.2 2.7L-2.25 2.75L-2.35 2.8L-2.45 2.85L-2.8 3.35L-2.85 3.45L-2.85 3.8L-2.85 4L-2.8 3.9L-2.7 4.1L-2.9 4.35" />
<radialGradient
id="RadialGradID_4231" gradientUnits="userSpaceOnUse" gradientTransform="matrix(0.000930786, 0.000167847, -0.00012207, 0.000762939, -0.35, 3.2)" spreadMethod ="pad" cx="0" cy="0" r="819.2" fx="0" fy="0" >
<stop  offset="0.313725"  style="stop-color:#FFFFFF;stop-opacity:0.662745" />
<stop  offset="1"  style="stop-color:#FFFFFF;stop-opacity:0" />
</radialGradient>
<path style="fill:url(#RadialGradID_4231) " d="M-0.85,2.75L-0.3 2.75L0.2 2.95L0.4 3.35L0.1 3.6L-0.45 3.65L-0.95 3.4L-1.1 3L-0.85 2.75" />
<radialGradient
id="RadialGradID_4232" gradientUnits="userSpaceOnUse" gradientTransform="matrix(0.000656128, 7.62939e-005, -1.52588e-005, 0.00253296, -0.25, 0.05)" spreadMethod ="pad" cx="0" cy="0" r="819.2" fx="0" fy="0" >
<stop  offset="0.313725"  style="stop-color:#FFFFFF;stop-opacity:0.431373" />
<stop  offset="1"  style="stop-color:#FFFFFF;stop-opacity:0" />
</radialGradient>
<path style="fill:url(#RadialGradID_4232) " d="M0.2,0.1L0.05 1.5L0 1.8L-0.05 1.9L-0.2 2.15L-0.4 1.8L-0.4 1.75L-0.5 1.45L-0.6 0.05L-0.5 -1.45L-0.2 -2.05L0.1 -1.35L0.2 0.1" />
<radialGradient
id="RadialGradID_4233" gradientUnits="userSpaceOnUse" gradientTransform="matrix(0.00491333, 0, 0, 0.00457764, 2.95, -1.6)" spreadMethod ="pad" cx="0" cy="0" r="819.2" fx="210454" fy="0" >
<stop  offset="0"  style="stop-color:#E87243;stop-opacity:0.811765" />
<stop  offset="1"  style="stop-color:#FFDEC2;stop-opacity:0" />
</radialGradient>
<path style="fill:url(#RadialGradID_4233) " d="M2.9,-2.5L1.05 -1.25L0.7 -1.3L0.6 -2.55L0.6 -3.35L0.95 -3.8L1.05 -3.85L3.8 -4.15L4.15 -4.2L4.95 -4.2L5.3 -4.2L5.9 -4.25L5.65 -4.2L7 -3.6L8 -2.4Q6.4 -3.1 4.55 -3.1L3.6 -3L3.15 -2.65L2.9 -2.5" />
<radialGradient
id="RadialGradID_4234" gradientUnits="userSpaceOnUse" gradientTransform="matrix(0.00483704, 0, 0, 0.00480652, -0.3, 0.65)" spreadMethod ="pad" cx="0" cy="0" r="819.2" fx="210473" fy="0" >
<stop  offset="0.337255"  style="stop-color:#F9C29F;stop-opacity:1" />
<stop  offset="1"  style="stop-color:#FEDEC1;stop-opacity:0" />
</radialGradient>
<path style="fill:url(#RadialGradID_4234) " d="M3.15,-2.65L2.35 -1.6Q1.9 -0.85 2 -0.1L2 -0.05L2.15 0.3L2.5 0.9L3.4 2.05L3.35 2.05Q2.1 1.8 1.6 2.35Q1.1 2.8 1.05 2.25L0.9 0.5L0.8 -0.65L0.7 -1.15L0.7 -1.3L1.05 -1.25L2.9 -2.5L3.15 -2.65M1.8,-0.7L1.85 -0.85L1.8 -0.75L1.8 -0.7" />
<radialGradient
id="RadialGradID_4235" gradientUnits="userSpaceOnUse" gradientTransform="matrix(0.00491333, 0, 0, 0.00485229, 2.95, -1.85)" spreadMethod ="pad" cx="0" cy="0" r="819.2" fx="210454" fy="0" >
<stop  offset="0"  style="stop-color:#E87243;stop-opacity:0.811765" />
<stop  offset="1"  style="stop-color:#FFDEC2;stop-opacity:0" />
</radialGradient>
<path style="fill:url(#RadialGradID_4235) " d="M3.55,2.2L3.4 2L3.55 2.2" />
<radialGradient
id="RadialGradID_4236" gradientUnits="userSpaceOnUse" gradientTransform="matrix(-0.00532532, 0, 0, 0.00514221, -4.05, -1.85)" spreadMethod ="pad" cx="0" cy="0" r="819.2" fx="210454" fy="0" >
<stop  offset="0"  style="stop-color:#E87243;stop-opacity:0.811765" />
<stop  offset="1"  style="stop-color:#FFDEC2;stop-opacity:0" />
</radialGradient>
<path style="fill:url(#RadialGradID_4236) " d="M-2.85,-2.4L-3.8 -2.9L-3.7 -2.8L-4.55 -3.1L-6.45 -3.25L-7.65 -3.05L-8 -2.95L-7.5 -3.95L-6.5 -4.2L-6.1 -4.2L-6.4 -4.25L-5.35 -4.2L-1.55 -3.85L-1.45 -3.8L-1.15 -3.35L-1.1 -2.55L-1.2 -1.4Q-1.55 -1.05 -2.85 -2.4" />
<radialGradient
id="RadialGradID_4237" gradientUnits="userSpaceOnUse" gradientTransform="matrix(0.00473022, 0, 0, 0.00587463, -0.3, 0.25)" spreadMethod ="pad" cx="0" cy="0" r="819.2" fx="210473" fy="0" >
<stop  offset="0.337255"  style="stop-color:#F9C29F;stop-opacity:1" />
<stop  offset="1"  style="stop-color:#FEDEC1;stop-opacity:0" />
</radialGradient>
<path style="fill:url(#RadialGradID_4237) " d="M-1.2,-1.4L-1.25 -1.3L-1.25 -1.25L-1.25 -1.1L-1.3 -0.65L-1.35 -0.6L-1.35 0L-1.4 0.1L-1.5 1.75Q-1.6 2.7 -2.1 2.35Q-2.6 1.95 -3.75 2.05L-3.9 2.05L-2.9 0.7L-3.45 1.45L-2.85 0.3L-2.5 -0.15L-2.45 -0.25L-2.4 -0.25L-2.45 -0.25L-2.75 -1.15Q-3.15 -2.15 -3.7 -2.8L-3.8 -2.9L-2.85 -2.4Q-1.55 -1.05 -1.2 -1.4" />
</g>
</svg>
